app/images/dist/instagram.svg

<svg width="40" height="40" viewBox="0 0 40 40" fill="none" xmlns="http://www.w3.org/2000/svg">
<path fill-rule="evenodd" clip-rule="evenodd" d="M20 40C8.95364 40 0 31.0455 0 20C0 8.95455 8.95364 0 20 0C31.0455 0 40 8.95455 40 20C40 31.0455 31.0455 40 20 40ZM20 1.35727C9.70364 1.35727 1.35727 9.70364 1.35727 20C1.35727 30.2955 9.70364 38.6427 20 38.6427C30.2955 38.6427 38.6418 30.2955 38.6418 20C38.6418 9.70364 30.2955 1.35727 20 1.35727ZM23.7 29H16.3045C14.7882 29 13.4773 28.5064 12.5145 27.5718C11.5227 26.6091 10.9991 25.2691 10.9991 23.6955V16.2609C10.9991 13.1136 13.1145 10.9982 16.2636 10.9982H23.7409C25.2782 10.9982 26.5964 11.5073 27.5536 12.4718C28.5036 13.4282 29.0055 14.7391 29.0055 16.2609V23.7373C29.0055 25.3 28.4927 26.6273 27.5218 27.5755C26.5673 28.5073 25.2455 29 23.7 29ZM27.3482 16.2609C27.3482 15.1855 27.0127 14.2791 26.3773 13.6391C25.7382 12.9955 24.8273 12.6555 23.7409 12.6555H16.2636C15.1709 12.6555 14.2591 12.9873 13.6273 13.6164C12.9918 14.2473 12.6564 15.1627 12.6564 16.2609V23.6955C12.6564 24.8109 13.0064 25.74 13.6691 26.3827C14.3164 27.0109 15.2282 27.3427 16.3045 27.3427H23.7C24.8036 27.3427 25.7245 27.0136 26.3636 26.39C27.0073 25.7609 27.3482 24.8436 27.3482 23.7373V16.2609ZM24.8091 16.2555C24.2282 16.2555 23.7573 15.7845 23.7573 15.2036C23.7573 14.6227 24.2282 14.1518 24.8091 14.1518C25.39 14.1518 25.8609 14.6227 25.8609 15.2036C25.8609 15.7845 25.39 16.2555 24.8091 16.2555ZM20.0018 24.5791C17.4482 24.5791 15.37 22.5018 15.37 19.9482C15.37 17.3945 17.4482 15.3173 20.0018 15.3173C22.5564 15.3173 24.6345 17.3945 24.6345 19.9482C24.6345 22.5018 22.5564 24.5791 20.0018 24.5791ZM20.0018 16.9736C18.3618 16.9736 17.0273 18.3082 17.0273 19.9482C17.0273 21.5882 18.3618 22.9227 20.0018 22.9227C21.6427 22.9227 22.9773 21.5882 22.9773 19.9482C22.9773 18.3082 21.6427 16.9736 20.0018 16.9736Z" fill="white"/>
</svg>

<svg width="40" height="40" fill="none" xmlns="http://www.w3.org/2000/svg"><path fill-rule="evenodd" clip-rule="evenodd" d="M20 40C8.954 40 0 31.046 0 20 0 8.955 8.954 0 20 0s20 8.955 20 20c0 11.046-8.954 20-20 20zm0-38.643C9.704 1.357 1.357 9.704 1.357 20c0 10.296 8.347 18.643 18.643 18.643 10.296 0 18.642-8.348 18.642-18.643C38.642 9.704 30.295 1.357 20 1.357zM23.7 29h-7.395c-1.517 0-2.828-.494-3.79-1.428-.992-.963-1.516-2.303-1.516-3.877v-7.434c0-3.147 2.115-5.263 5.265-5.263h7.477c1.537 0 2.855.51 3.813 1.474.95.956 1.452 2.267 1.452 3.789v7.476c0 1.563-.513 2.89-1.484 3.839C26.567 28.507 25.246 29 23.7 29zm3.648-12.74c0-1.075-.335-1.98-.97-2.62-.64-.645-1.55-.985-2.637-.985h-7.477c-1.093 0-2.005.332-2.637.961-.635.631-.97 1.547-.97 2.645v7.434c0 1.116.35 2.045 1.012 2.688.647.628 1.56.96 2.636.96H23.7c1.104 0 2.024-.33 2.664-.953.643-.63.984-1.546.984-2.653v-7.476zm-2.539-.005a1.052 1.052 0 110-2.103 1.052 1.052 0 010 2.104zm-4.807 8.324a4.637 4.637 0 01-4.632-4.63 4.637 4.637 0 014.632-4.632 4.637 4.637 0 014.633 4.631 4.637 4.637 0 01-4.633 4.631zm0-7.605a2.978 2.978 0 00-2.975 2.974 2.978 2.978 0 002.975 2.975 2.978 2.978 0 002.975-2.975 2.978 2.978 0 00-2.975-2.974z" fill="#fff"/></svg>
